X: 12312
T: Fairy, The
R: jig
M: 6/8
K: Gmajor
dBA ~B3|GBd gab|age dBG|BAG Age|
dBA ~B3|GBd gab|age dBA|BGG Gge:|
|:ded deg|aba aga|bge edB|BAG Age|
dBA ~B3|GBd gab|age dBA|BGG Gge:|

